X:1
T:"Kleine" Fuge
T:"Kleine" Fuge (g-Moll)
T:BWV 578
T:Johann Sebastian Bach
T:Creative Commons Zero
T:Creative Commons Zero
T:Creative Commons Zero
T:Creative Commons Zero
T:Creative Commons Zero
C:Johann Sebastian Bach
Z:Creative Commons Zero
%%score { ( 1 2 ) | 3 | 4 }
L:1/8
Q:1/4=70
M:4/4
K:Bb
V:1 treble nm="Organ" snm="Org."
V:2 treble 
V:3 bass 
V:4 bass 
V:1
 G2 d2"^(   )" MB3 A | GBAG ^FA D2 | GDAD BA/G/ AD | GD/G/ AD/A/ BA/G/ A/D/d/c/ | %4
 B/A/G/B/ A/G/^F/A/ G/D/G/A/ B/c/d/=e/ | =f/=e/d/f/ e/d/^c/e/ dAde | %6
 f/g/f/g/ Tg3/2f/4g/4 a/g/a/b/ a/g/f/=e/ | f/a/g/a/ ^c/a/g/a/ d/a/g/a/ c/a/g/a/ | %8
 f/d/^c/d/ g/d/c/d/ a/d/c/d/ g/d/c/d/ | AfG=e FAdf | _ea z e dg z d | %11
 c/B/c/d/ c/a/g/a/ B/g/^f/g/ A/f/=e/f/ | g4 z4 | z4 B/d/c/d/ ^F/d/c/d/ | G/d/c/d/ ^F/d/c/d/ B2 c2 | %15
 d2 c2 z B z A | z D G/A/B/G/ Ad^c=e | a/b/a/g/ f/=e/d/^c/ d z b z | =e z z a Ta4- | a8- | %20
 a4- a/g/a/b/ a/g/f/=e/ | f4 z dgf | _e4- ecfe | d2- d/g/^f/g/ c2- c/B/A/c/ | %24
 B/A/G/B/ A/G/^F/A/ G/D/=E/F/ G/D/G/A/ | B/G/B/c/ d/A/d/c/ B3 A | GBAG ^FA D2 | GDAD BA/G/ AD | %28
 GD/G/ AD/A/ BA/G/ A/D/d/c/ | B/A/G/B/ A/G/^F/A/ G/B/c/d/ e/B/A/G/ | %30
 ^F/A/B/c/ d/A/G/=F/ E/G/A/B/ c/G/F/E/ | D/F/G/A/ B/d/c/B/ A/c/d/e/ f/g/f/e/ | %32
 d/f/e/d/ c/B/A/c/ B/F/G/A/ B/c/B/c/ | d/=e/d/e/ Te3/2d/4e/4 f/_e/f/g/ f/e/d/c/ | %34
 d/f/e/f/ A/f/e/f/ B/f/e/f/ A/f/e/f/ | d/B/A/B/ e/B/A/B/ f/B/A/B/ e/B/A/B/ | %36
 B/c/d/B/ e/d/c/e/ d/c/d/e/ d/c/B/d/ | c/B/c/d/ c/B/A/c/ B/A/B/c/ B/A/G/B/ | Af z _A Ge z G | %39
 Fd z F E/G/c/B/ =A/G/F/E/ | D/E/F/G/ A/B/c/A/ B/F/G/A/ B/c/B/c/ | %41
 d/=e/d/e/ Te3/2d/4e/4 f/e/f/g/ ff | Tf8- | f8- | f/e/f/g/ c>a b/a/b/c'/ b/a/g/f/ | %45
 e/d/e/f/ e/d/c/B/ a/g/a/b/ a/g/f/e/ | d/c/d/e/ d/c/B/A/ g/f/g/_a/ g/f/e/d/ | %47
 c/=B/c/d/ c/d/e/c/ f2- f/_a/g/f/ | e4- e/c/d/e/ f/g/_a/f/ | =B/c/d/B/ G z A2 g2 | e3 d cedc | %51
 =Bd G2 cGdG | ed/c/ dG cG/c/ dG/d/ | ed/c/ d/G/g/f/ e/d/c/e/ d/c/=B/d/ | %54
 c/g/e/g/ c/e/G/_B/ A/c/A/c/ F/A/C/E/ | D/ f/d/f/ B/d/F/A/ G/B/G/B/ E/G/B,/D/ | %56
 C/ e/c/e/ A/c/=E/G/ ^F/A/F/A/ D/F/A,/C/ | B,GA,^F G2 z2 | G/B/A/G/ d/A/D/c/ B/d/c/B/ =f/c/F/e/ | %59
 d/f/e/d/ g/d/G/f/ =e/g/f/e/ a/e/A/g/ | ^f2 ga b4- | b2 =a4 g2- | g2 ^f2 g2 z2 | %63
 z dga b/a/g/a/ ^f/g/f/g/ | a/g/^f/=e/ d/c/B/A/"_(   )" B/d/c/d/ ^F/d/c/d/ | %65
 G/d/c/d/ ^F/d/c/d/ B/G/F/G/ c/G/F/G/ | d/G/^F/G/ c/G/F/G/ BgA^f | !fermata!g8 |] %68
V:2
 z8 | z8 | z8 | z8 | z8 | D2 A2 F3 =E | DF=ED ^CE A,2 | DA,=EA, FE/D/ EA, | %8
 DA,/D/ =EA,/E/ FE/D/ E/A,/A/G/ | F/=E/D/F/ E/D/^C/E/ D/A,/D/E/ F/G/A/=B/ | %10
 c/_B/c/d/ c/B/A/c/ B/A/B/c/ B/A/G/B/ | AG^FD G2 z2 | z DGA B/c/B/c/ Tc3/2B/4c/4 | %13
 d/c/d/_e/ d/c/B/A/ D z C z | D z C z z/ G/^F/G/ z/ G/F/G/ | z/ G/^F/G/ z/ G/F/G/ D2 C2 | %16
 B,2 z2 z4 | z8 | z8 | z8 | z8 | z Adc B4- | BGcB A4- | A2 G4 ^F2 | G z z2 z4 | z8 | z8 | z8 | z8 | %29
 z8 | z8 | z8 | B,2 F2 D3 C |[I:staff +1] B,DCB, A,C[I:staff -1] z F | F8- | F8 | x8 | x8 | x8 | %39
 x8 | x8 | x8 | x8 | x8 | x4 z FBA | G4- GCAG | F4- FB,GF | E4- E/E/D/C/ =B,2 | C2 z2 z C_AF- | %49
 F2- F/F/E/D/ E/D/C/E/ D/C/=B,/D/ | C/G,/C/D/ E/F/E/F/ G/E/C/G/ _A/F/G/A/ | D/E/D/C/ =B,D G,4- | %52
 G,8- | G,4- G,G F/E/D/F/ | E2 z2 z[I:staff +1] CA,F, | B,4- B,B,G,E, | A,4- A,A,^F,D, | %57
 G,2[I:staff -1] z2[I:staff +1] G,/B,/A,/G,/ D/A,/D,/C/ | B,DA,D- D[I:staff -1]GC=F- | %59
 FFDG- GG=EA- | A/_e/d/c/ B/d/A/d/ G/_a/g/=f/ g/f/_e/d/ | e4 d4 | c4 B/d/c/B/ A/B/G/A/ | %63
 B/c/B/c/ d/_e/d/c/ BdcB | A2 z D TD4- | D8- | D4- DE- ED | D8 |] %68
V:3
 z8 | z8 | z8 | z8 | z8 | z8 | z8 | z8 | z8 | z8 | z8 | z4 G,2 D2 | B,3 A, G,B,A,G, | %13
 ^F,A, D,2 G,D,A,D, | B,A,/G,/ A,D, G,D,/G,/ A,D,/A,/ | %15
 B,A,/G,/ A,/D,/D/C/ B,/A,/G,/B,/ A,/G,/^F,/A,/ | G,/D,/G,/A,/ B,/C/D/=E/ =F/E/D/F/ E/D/^C/E/ | %17
 DA,D=E[K:treble] F/G/F/G/ TG3/2F/4G/4 | A/G/A/B/ A/G/F/=E/ F/A/G/A/ ^C/A/G/A/ | %19
 D/A/G/A/ ^C/A/G/A/ F/D/C/D/ G/D/C/D/ | A/D/^C/D/ G/D/C/D/ F=E/D/"^(   )" T^C>D | %21
 D/=C/D/=E/ D/C/B,/A,/[K:bass] G,/F,/G,/A,/ G,/F,/_E,/D,/ | %22
 C/B,/C/D/ C/B,/A,/G,/ F,/E,/F,/G,/ F,/E,/D,/C,/ | B,,/B,/C/D/ E2 z/ A,/B,/C/ D2 | G,2 D2 B,3 A, | %25
 G,/B,/A,/G,/ ^F,/G,/=E,/F,/ G,/D,/E,/F,/ G,/D,/G,/A,/ | %26
 B,/C/B,/C/ TC3/2B,/4C/4 D/C/D/_E/ D/C/B,/A,/ | B,/D/C/D/ ^F,/D/C/D/ G,/D/C/D/ F,/D/C/D/ | %28
 B,/G,/^F,/G,/ C/G,/F,/G,/ D/G,/F,/G,/ C/G,/F,/G,/ | G,B, C/B,/A,/C/ B,2- B,/D/C/B,/ | %30
 A,2- A,/C/B,/A,/ G,2- G,/B,/A,/G,/ | F,3 =E, F,_E,D,C, | B,,2 z2 z CB,A, | G,4 F,2 F,2 | %34
 B,F,CF, DC/B,/ CF, | B,F,/B,/ CF,/C/ DC/B,/ C/F,/F/E/ | %36
 D/C/B,/D/ C/B,/A,/C/ B,[I:staff -1]G[I:staff +1] z G, | %37
 A,[I:staff -1]F[I:staff +1] z F, G,[I:staff -1]FC=E | F/_E/F/G/ F/E/D/F/ E/D/E/F/ E/D/C/E/ | %39
 D/C/D/E/ D/C/B,/D/ C/B,/C/D/ C/B,/A,/C/ | B,/C/D/B,/ C/D/E/C/ D/C/B,/C/ D/E/D/E/ | %41
 F/G/F/G/ TG3/2F/4G/4 A/G/A/B/ A/G/F/_E/ | D/F/E/F/ A,/F/E/F/ B,/F/E/F/ A,/F/E/F/ | %43
 D/B/A/B/ E/B/A/B/ F/B/A/B/ E/B/A/B/ | B/d/c/B/ A/G/F/E/[I:staff +1] D4- | DG,CB, A,4- | %46
 A,F,B,A, G,4- | G,E,_A,G, F,2 G,2- | G,/G,/=A,/=B,/ C/D/E/C/ _A,4 | G,=A, =B,2 C z z2 | z8 | z8 | %52
 z8 | z8 | z G,E,C, F,2 z2 | z F,D,B,, E,2 z2 | z E,C,A,, D,2 z2 | %57
 G,,/B,,/A,,/G,,/ D,/A,,/D,,/C,/ B,,D,^F,,D, | G,2 ^F,2 G,2 A,2 | B,2 =B,2 C2 ^C2 | %60
 D2[K:treble] =E^F G2 =AB | c/G/=F/_E/ c/A/F/A/ B,/F/E/D/ B/G/E/G/ | %62
 A,/E/D/C/ A/^F/D/F/ G,/B,/D/G/ ^F/G/=E/F/ | G3 ^F G2 AD | D2[K:bass] z ^F, G, z C z | %65
 B, z C z B, z A, z | G, z A, z G,B,CA, | !fermata!=B,8 |] %68
V:4
 z8 | z8 | z8 | z8 | z8 | z8 | z8 | z8 | z8 | z8 | z8 | z8 | z8 | z8 | z8 | z8 | z4 D,2 A,2 | %17
 F,3 =E, D,F,E,D, | ^C,=E, A,,2 D,A,,E,A,, | F,=E,/D,/ E,A,, D,A,,/D,/ E,A,,/E,/ | %20
 F,=E,/D,/ E,A,, D,G,, A,,2 | D,,2 z2 z4 | z8 | z8 | z8 | z4 z G,,G,=F, | %26
 _E, z E,, z D,,D,"^(   )" TD,2- | D,8- | D,8- | D,6 C,2- | C,2 B,,4 A,,2 | B,,A,, G,,2 F,,2 z2 | %32
 z8 | z8 | z8 | z8 | z8 | z8 | z8 | z8 | B,,2 F,2 D,3 C, | B,,D,C,B,, A,,C, F,,2 | %42
 B,,F,,C,F,, D,C,/B,,/ C,F,, | B,,F,,/B,,/ C,F,,/C,/ D,C,/B,,/ C,F,, | D,E,F,F,, B,,2 z2 | %45
 C,2 z2 F,,2 z2 | B,,2 z2 E,,2 z2 | _A,,2 z2 D,,2 G,,2 | C,,2 z2 F,,2 z2 | G,,8 | %50
 C,,G,,C,D, E,2 F,2 | G,2- G,/G,/F,/G,/ E,/G,/F,/G,/ =B,,/G,/F,/G,/ | %52
 C,/G,/F,/G,/ =B,,/G,/F,/G,/ E,/C/=B,/C/ F,/C/B,/C/ | G,/C/=B,/C/ G,/B,/A,/B,/ C,E,F,G, | %54
 C,2 z2 z4 | z8 | z8 | z8 | z8 | z8 | z8 | z8 | z4 G,2 D2 | B,3 A, G,B,A,G, | ^F,A, D,2 G,D,A,D, | %65
 B,A,/G,/ A,D, G,D,/G,/ A,D,/A,/ | B,A,/G,/ A,D, G,E,C,D, | !fermata!G,,8 |] %68

